images/icon-tel.svg

<svg fill="none" height="30" viewBox="0 0 30 30" width="30" xmlns="http://www.w3.org/2000/svg"><g fill="#000"><path d="m29.2128 23.1423-6.0721-4.0494c-.7706-.5097-1.8035-.342-2.3732.3855l-1.7687 2.2741c-.2273.2997-.6405.3867-.9694.204l-.3364-.1855c-1.1154-.6079-2.5031-1.3648-5.2992-4.1618-2.79612-2.7971-3.5545-4.1859-4.16244-5.2992l-.18448-.3365c-.18519-.3288-.09989-.7437.19995-.9729l2.27267-1.76817c.7271-.56974.8951-1.60236.3859-2.37317l-4.04938-6.072107c-.52182-.7849233-1.56874-1.020553-2.37657-.534941l-2.53913 1.525258c-.79781.46904-1.383136 1.22865-1.633236 2.11967-.914337 3.3315-.2264902 9.08116 8.243276 17.55196 6.73754 6.7369 11.75324 8.5487 15.20074 8.5487.7935.0034 1.5838-.0998 2.3497-.3069.8912-.2498 1.6509-.8352 2.1197-1.6333l1.5268-2.5376c.4863-.808.2508-1.8555-.5345-2.3777zm-.327 1.8647-1.5232 2.5392c-.3366.576-.883.9995-1.5248 1.1818-3.0756.8444-8.4488.145-16.58009-7.9863-8.13131-8.1313-8.830644-13.50404-7.98626-16.58005.18255-.64256.60659-1.18968 1.1833-1.52678l2.53914-1.52327c.35052-.21091.8049-.10868 1.03133.23194l2.1997 3.30249 1.84628 2.76909c.2211.33434.1484.78246-.167 1.02986l-2.27316 1.76822c-.69177.529-.88932 1.4861-.46341 2.2457l.1805.3279c.63893 1.1719 1.43329 2.6296 4.33337 5.5292 2.9001 2.8996 4.3574 3.694 5.5287 4.3329l.3284.1809c.7596.4259 1.7167.2284 2.2457-.4634l1.7682-2.2731c.2475-.3153.6954-.3879 1.0299-.167l6.0715 4.0494c.3409.2263.4431.6809.2319 1.0313z"/><path d="m16.9992 4.99981c4.6915.00522 8.4935 3.80721 8.4987 8.49879 0 .2761.2238.4999.4999.4999.2762 0 .5-.2238.5-.4999-.0058-5.24357-4.2551-9.49286-9.4986-9.4986-.2761 0-.4999.2238-.4999.49991s.2238.4999.4999.4999z"/><path d="m16.9992 7.99981c3.0356.00358 5.4956 2.46359 5.4992 5.49919 0 .2761.2238.4999.4999.4999s.4999-.2238.4999-.4999c-.0042-3.58761-2.9114-6.4949-6.499-6.499-.2761 0-.4999.2238-.4999.49991s.2238.4999.4999.4999z"/><path d="m16.9992 10.9998c1.3798.0017 2.4979 1.1198 2.4996 2.4997 0 .2761.2239.4999.4999.4999.2761 0 .4999-.2238.4999-.4999-.0022-1.9318-1.5676-3.4973-3.4994-3.4995-.2761 0-.4999.2238-.4999.4999s.2238.4999.4999.4999z"/></g></svg>

<svg width="30" height="30" viewBox="0 0 30 30" fill="none" xmlns="http://www.w3.org/2000/svg">
<path d="M29.2128 23.1423L23.1407 19.0929C22.3701 18.5832 21.3372 18.7509 20.7675 19.4784L18.9988 21.7525C18.7715 22.0522 18.3583 22.1392 18.0294 21.9565L17.693 21.771C16.5776 21.1631 15.1899 20.4062 12.3938 17.6092C9.59768 14.8121 8.8393 13.4233 8.23136 12.31L8.04688 11.9735C7.86169 11.6447 7.94699 11.2298 8.24683 11.0006L10.5195 9.23243C11.2466 8.66269 11.4146 7.63007 10.9054 6.85926L6.85602 0.787153C6.3342 0.0022297 5.28728 -0.2334 4.47945 0.252212L1.94032 1.77747C1.14251 2.24651 0.557184 3.00612 0.307084 3.89714C-0.607253 7.22864 0.0805938 12.9783 8.55036 21.4491C15.2879 28.186 20.3036 29.9978 23.7511 29.9978C24.5446 30.0012 25.3349 29.898 26.1008 29.6909C26.992 29.4411 27.7517 28.8557 28.2205 28.0576L29.7473 25.52C30.2336 24.712 29.9981 23.6645 29.2128 23.1423ZM28.8858 25.007L27.3626 27.5462C27.026 28.1222 26.4796 28.5457 25.8378 28.728C22.7622 29.5724 17.389 28.873 9.25771 20.7417C1.1264 12.6104 0.427066 7.23766 1.27145 4.16165C1.454 3.51909 1.87804 2.97197 2.45475 2.63487L4.99389 1.1116C5.34441 0.90069 5.79879 1.00292 6.02522 1.34354L8.22492 4.64603L10.0712 7.41512C10.2923 7.74946 10.2196 8.19758 9.9042 8.44498L7.63104 10.2132C6.93927 10.7422 6.74172 11.6993 7.16763 12.4589L7.34813 12.7868C7.98706 13.9587 8.78142 15.4164 11.6815 18.316C14.5816 21.2156 16.0389 22.01 17.2102 22.6489L17.5386 22.8298C18.2982 23.2557 19.2553 23.0582 19.7843 22.3664L21.5525 20.0933C21.8 19.778 22.2479 19.7054 22.5824 19.9263L28.6539 23.9757C28.9948 24.202 29.097 24.6566 28.8858 25.007Z" fill="black"/>
<path d="M16.9992 4.99981C21.6907 5.00503 25.4927 8.80702 25.4979 13.4986C25.4979 13.7747 25.7217 13.9985 25.9978 13.9985C26.274 13.9985 26.4978 13.7747 26.4978 13.4986C26.492 8.25503 22.2427 4.00574 16.9992 4C16.7231 4 16.4993 4.2238 16.4993 4.49991C16.4993 4.77602 16.7231 4.99981 16.9992 4.99981Z" fill="black"/>
<path d="M16.9992 7.99981C20.0348 8.00339 22.4948 10.4634 22.4984 13.499C22.4984 13.7751 22.7222 13.9989 22.9983 13.9989C23.2744 13.9989 23.4982 13.7751 23.4982 13.499C23.494 9.91139 20.5868 7.0041 16.9992 7C16.7231 7 16.4993 7.2238 16.4993 7.49991C16.4993 7.77602 16.7231 7.99981 16.9992 7.99981Z" fill="black"/>
<path d="M16.9992 10.9998C18.379 11.0015 19.4971 12.1196 19.4988 13.4995C19.4988 13.7756 19.7227 13.9994 19.9987 13.9994C20.2748 13.9994 20.4986 13.7756 20.4986 13.4995C20.4964 11.5677 18.931 10.0022 16.9992 10C16.7231 10 16.4993 10.2238 16.4993 10.4999C16.4993 10.776 16.7231 10.9998 16.9992 10.9998Z" fill="black"/>
</svg>
